_site/images/homepage/software-developers.svg

<svg fill="none" height="110" viewBox="0 0 110 110" width="110" xmlns="http://www.w3.org/2000/svg" xmlns:xlink="http://www.w3.org/1999/xlink"><filter id="a" color-interpolation-filters="sRGB" filterUnits="userSpaceOnUse" height="110" width="110" x="0" y="0"><feFlood flood-opacity="0" result="BackgroundImageFix"/><feColorMatrix in="SourceAlpha" type="matrix" values="0 0 0 0 0 0 0 0 0 0 0 0 0 0 0 0 0 0 127 0"/><feOffset dy="6"/><feGaussianBlur stdDeviation="7.5"/><feColorMatrix type="matrix" values="0 0 0 0 0.164706 0 0 0 0 0.439216 0 0 0 0 0.690196 0 0 0 0.15 0"/><feBlend in2="BackgroundImageFix" mode="normal" result="effect1_dropShadow"/><feBlend in="SourceGraphic" in2="effect1_dropShadow" mode="normal" result="shape"/></filter><g filter="url(#a)"><rect fill="#f9fcff" height="80" rx="25" width="80" x="15" y="9"/></g><g fill="#00a0b6"><path d="m39.9526 63.1771h30.6091c.5262 0 .9526-.4264.9526-.9526 0-1.5484 0-25.0579 0-26.6718 0-.5262-.4264-.9526-.9526-.9526h-30.6091c-.5262 0-.9526.4264-.9526.9526v26.6718c0 .5262.4264.9526.9526.9526zm.9525-26.6719h28.704v5.7154h-28.704zm0 7.6206h28.704v17.1462h-28.704z"/><path d="m50.2156 50.1203c-.3718-.3721-.9751-.3721-1.347 0l-3.8102 3.8102c-.3721.3719-.3721.9749 0 1.347l3.8102 3.8103c.3719.3721.9749.3721 1.347 0s.3721-.9752 0-1.347l-3.1365-3.1368 3.1365-3.1368c.3721-.3718.3721-.9751 0-1.3469z"/><path d="m57.5874 49.9418c-.4703-.2352-1.0426-.0444-1.278.4259l-3.8103 7.6205c-.2351.4706-.0444 1.0429.426 1.2781.4715.2359 1.0433.0436 1.278-.426l3.8103-7.6205c.2354-.4703.0446-1.0426-.426-1.278z"/><path d="m61.6456 50.1203c-.3719-.3721-.9751-.3721-1.347 0-.3721.3718-.3721.9749 0 1.3469l3.1365 3.1368-3.1365 3.1368c-.3721.3718-.3721.9749 0 1.347.3719.3721.9751.3721 1.347 0l3.8103-3.8103c.3721-.3721.3721-.9751 0-1.347z"/><path d="m66.6872 46.0309h-22.8616c-.5261 0-.9526.4264-.9526.9526 0 .5261.4265.9525.9526.9525h22.8616c.5262 0 .9526-.4264.9526-.9525 0-.5262-.4264-.9526-.9526-.9526z"/><path d="m60.0204 39.363c0 .5261-.4265.9525-.9526.9525s-.9526-.4264-.9526-.9525c0-.5262.4265-.9526.9526-.9526s.9526.4264.9526.9526z"/><path d="m63.8309 39.363c0 .5261-.4264.9525-.9526.9525-.5261 0-.9525-.4264-.9525-.9525 0-.5262.4264-.9526.9525-.9526.5262 0 .9526.4264.9526.9526z"/><path d="m67.6395 39.363c0 .5261-.4264.9525-.9526.9525-.5261 0-.9525-.4264-.9525-.9525 0-.5262.4264-.9526.9525-.9526.5262 0 .9526.4264.9526.9526z"/><path d="m53.3513 38.4104h-9.5257c-.5261 0-.9526.4264-.9526.9526 0 .5261.4265.9525.9526.9525h9.5257c.5261 0 .9525-.4264.9525-.9525 0-.5262-.4264-.9526-.9525-.9526z"/></g></svg>

<svg width="110" height="110" viewBox="0 0 110 110" fill="none" xmlns="http://www.w3.org/2000/svg">
<g filter="url(#filter0_d)">
<rect x="15" y="9" width="80" height="80" rx="25" fill="#F9FCFF"/>
</g>
<path d="M39.9526 63.1771H70.5617C71.0879 63.1771 71.5143 62.7507 71.5143 62.2245C71.5143 60.6761 71.5143 37.1666 71.5143 35.5527C71.5143 35.0265 71.0879 34.6001 70.5617 34.6001H39.9526C39.4264 34.6001 39 35.0265 39 35.5527V62.2245C39 62.7507 39.4264 63.1771 39.9526 63.1771ZM40.9051 36.5052H69.6091V42.2206H40.9051V36.5052ZM40.9051 44.1258H69.6091V61.272H40.9051V44.1258Z" fill="#00A0B6"/>
<path d="M50.2156 50.1203C49.8438 49.7482 49.2405 49.7482 48.8686 50.1203L45.0584 53.9305C44.6863 54.3024 44.6863 54.9054 45.0584 55.2775L48.8686 59.0878C49.2405 59.4599 49.8435 59.4599 50.2156 59.0878C50.5877 58.7157 50.5877 58.1126 50.2156 57.7408L47.0791 54.604L50.2156 51.4672C50.5877 51.0954 50.5877 50.4921 50.2156 50.1203Z" fill="#00A0B6"/>
<path d="M57.5874 49.9418C57.1171 49.7066 56.5448 49.8974 56.3094 50.3677L52.4991 57.9882C52.264 58.4588 52.4547 59.0311 52.9251 59.2663C53.3966 59.5022 53.9684 59.3099 54.2031 58.8403L58.0134 51.2198C58.2488 50.7495 58.058 50.1772 57.5874 49.9418Z" fill="#00A0B6"/>
<path d="M61.6456 50.1203C61.2737 49.7482 60.6705 49.7482 60.2986 50.1203C59.9265 50.4921 59.9265 51.0952 60.2986 51.4672L63.4351 54.604L60.2986 57.7408C59.9265 58.1126 59.9265 58.7157 60.2986 59.0878C60.6705 59.4599 61.2737 59.4599 61.6456 59.0878L65.4559 55.2775C65.828 54.9054 65.828 54.3024 65.4559 53.9305L61.6456 50.1203Z" fill="#00A0B6"/>
<path d="M66.6872 46.0309H43.8256C43.2995 46.0309 42.873 46.4573 42.873 46.9835C42.873 47.5096 43.2995 47.936 43.8256 47.936H66.6872C67.2134 47.936 67.6398 47.5096 67.6398 46.9835C67.6398 46.4573 67.2134 46.0309 66.6872 46.0309Z" fill="#00A0B6"/>
<path d="M60.0204 39.363C60.0204 39.8891 59.5939 40.3155 59.0678 40.3155C58.5417 40.3155 58.1152 39.8891 58.1152 39.363C58.1152 38.8368 58.5417 38.4104 59.0678 38.4104C59.5939 38.4104 60.0204 38.8368 60.0204 39.363Z" fill="#00A0B6"/>
<path d="M63.8309 39.363C63.8309 39.8891 63.4045 40.3155 62.8783 40.3155C62.3522 40.3155 61.9258 39.8891 61.9258 39.363C61.9258 38.8368 62.3522 38.4104 62.8783 38.4104C63.4045 38.4104 63.8309 38.8368 63.8309 39.363Z" fill="#00A0B6"/>
<path d="M67.6395 39.363C67.6395 39.8891 67.2131 40.3155 66.6869 40.3155C66.1608 40.3155 65.7344 39.8891 65.7344 39.363C65.7344 38.8368 66.1608 38.4104 66.6869 38.4104C67.2131 38.4104 67.6395 38.8368 67.6395 39.363Z" fill="#00A0B6"/>
<path d="M53.3513 38.4104H43.8256C43.2995 38.4104 42.873 38.8368 42.873 39.363C42.873 39.8891 43.2995 40.3155 43.8256 40.3155H53.3513C53.8774 40.3155 54.3038 39.8891 54.3038 39.363C54.3038 38.8368 53.8774 38.4104 53.3513 38.4104Z" fill="#00A0B6"/>
<defs>
<filter id="filter0_d" x="0" y="0" width="110" height="110" filterUnits="userSpaceOnUse" color-interpolation-filters="sRGB">
<feFlood flood-opacity="0" result="BackgroundImageFix"/>
<feColorMatrix in="SourceAlpha" type="matrix" values="0 0 0 0 0 0 0 0 0 0 0 0 0 0 0 0 0 0 127 0"/>
<feOffset dy="6"/>
<feGaussianBlur stdDeviation="7.5"/>
<feColorMatrix type="matrix" values="0 0 0 0 0.164706 0 0 0 0 0.439216 0 0 0 0 0.690196 0 0 0 0.15 0"/>
<feBlend mode="normal" in2="BackgroundImageFix" result="effect1_dropShadow"/>
<feBlend mode="normal" in="SourceGraphic" in2="effect1_dropShadow" result="shape"/>
</filter>
</defs>
</svg>
